!!!OTL: God Bless America
!!!COM: Berlin, Irving
!!!ODT: 1938
!!!YOR: HL00005059 (Hal Leonard sheet music)
!!!YOY: 1968
!!!AST: Patriotic song
!!!YEC: Brian Luke, 2001
**kern	**harm
*k[f#c#]	*k[f#c#]
*M4/4	*M4/4
*D:	*D:
*>A	*>A
=1	=1
1d	I
=2	=2
2c#	.
2B	viio7/V
=3	=3
4.c#	V7
8B	.
[2A	.
=4	=4
1A]	.
=5	=5
1e	.
=6	=6
2d	.
2e	.
=7	=7
[1f#	I
=8	=8
2f#]	V7/IV
4e	.
4f#	.
=9	=9
2g	IV
[2B	.
=10	=10
2B]	.
2g	iv
=11	=11
2f#	I
[2A	.
=12	=12
2A]	.
4d	vi
4e	.
=13	=13
2f#	V7/V
4e	.
4d	.
=14	=14
2e	V7
4d	.
4c#	.
=15	=15
[1d	I;
=16	=16
2d]	.
4.c#	.
8d	.
=17	=17
2e	V7
[2A	.
=18	=18
2A]	.
4.d	.
8e	.
=19	=19
2f#	I
[2A	.
=20	=20
2A]	.
4.e	.
8f#	.
=21	=21
2g	V7
[2c#	.
=22	=22
2c#]	.
4.f#	.
8g	.
=23	=23
[1a	V7/IV
=24	=24
1a]	.
=25	=25
1b	IV
=26	=26
2a	I
2g	V7
=27	=27
4f#	.
4e	.
[2d	vi
=28	=28
2d]	.
2g	ii
=29	=29
1f#	Ic
=30	=30
1e	V7
=31	=31
[1d	I;
=32	=32
2.d]	.
4r	.
*-	*-
